X:6012
T:Fakenham Fair
R:Jig
C:Trad.
O:England
Z:Paul Hardy's Session Tunebook 2015 (see www.paulhardy.net). Creative Commons cc by-nc-sa licenced.
M:6/8
L:1/8
Q:3/8=80
K:G
D|"G"G2B "D"A2c|"G"Bcd "C"gfe|"G"dBG GAB|"Em"E3-E2D|
"G"G2B "D"A2c|"G"Bcd "C"gfe|"G"dBG "D"AGF|"G"G3-G2:|
|:d|"C"e2e edc|"Bm"d2d dBA|"G"G2G GAB|"Em"E3-E2 D|
"G"G2B "D"A2c|"G"Bcd "C"gfe|"G"dBG "D"AGF|"G"G3-G2:|

